usr/share/icons/biglinux-icons-material/16/actions/check_constraint.svg

<svg xmlns="http://www.w3.org/2000/svg" viewBox="0 0 16 16">
  <defs id="defs3051">
    <style type="text/css" id="current-color-scheme">
      .ColorScheme-Text {
        color:#dedede;
      }
      </style>
  </defs>
 <path style="fill:currentColor;fill-opacity:1;stroke:none" 
     d="M 8 2 A 5 6 0 0 0 3 8 A 5 6 0 0 0 8 14 A 5 6 0 0 0 12.101562 11.417969 L 11.326172 10.771484 A 4 5 0 0 1 8 13 A 4 5 0 0 1 4 8 A 4 5 0 0 1 8 3 A 4 5 0 0 1 11.326172 5.2285156 L 12.105469 4.578125 A 5 6 0 0 0 8 2 z "
     class="ColorScheme-Text"
     />
</svg>

<svg xmlns="http://www.w3.org/2000/svg" viewBox="0 0 16 16"><path d="M8 2a5 6 0 0 0-5 6 5 6 0 0 0 5 6 5 6 0 0 0 4.102-2.582l-.776-.647A4 5 0 0 1 8 13a4 5 0 0 1-4-5 4 5 0 0 1 4-5 4 5 0 0 1 3.326 2.229l.78-.65A5 6 0 0 0 8 2z" style="fill:currentColor;fill-opacity:1;stroke:none;color:#dedede"/></svg>
